svg/fluentui-system-icons/ic_fluent_call_32_filled.svg

<svg width="32" height="32" viewBox="0 0 32 32" fill="none" xmlns="http://www.w3.org/2000/svg">
<path d="M13.5124 14.0452L15.6578 12.0773C16.8595 10.975 17.2718 9.25343 16.6997 7.72629L15.7829 5.27922C15.0727 3.38342 13.0102 2.36728 11.0742 2.95935C7.64184 4.00909 5.00386 7.19864 5.816 10.9878C6.3501 13.4797 7.37122 16.6075 9.30805 19.937C11.2482 23.2722 13.4639 25.7378 15.3632 27.467C18.2321 30.0788 22.3324 29.4256 24.9705 26.9661C26.4381 25.5978 26.588 23.3239 25.3127 21.7748L23.6315 19.7326C22.5951 18.4736 20.898 17.9698 19.3425 18.4594L16.5656 19.3335C16.4588 19.2237 16.3351 19.0925 16.2001 18.942C15.7439 18.4333 15.1731 17.7203 14.6932 16.889C14.2132 16.0576 13.8811 15.2069 13.6687 14.5574C13.6058 14.3653 13.554 14.1926 13.5124 14.0452Z" fill="#212121"/>
</svg>

<svg xmlns="http://www.w3.org/2000/svg" width="32" height="32"><path d="m13.512 14.045 2.146-1.968a4 4 0 0 0 1.042-4.35l-.917-2.448a3.832 3.832 0 0 0-4.709-2.32c-3.432 1.05-6.07 4.24-5.258 8.029.534 2.492 1.555 5.62 3.492 8.949a31.806 31.806 0 0 0 6.055 7.53c2.87 2.612 6.97 1.959 9.608-.5a3.798 3.798 0 0 0 .342-5.192l-1.681-2.042a4 4 0 0 0-4.29-1.274l-2.776.875c-.107-.11-.23-.241-.366-.392a12.536 12.536 0 0 1-1.507-2.053 12.534 12.534 0 0 1-1.024-2.332 12.988 12.988 0 0 1-.157-.512Z"/></svg>
